assets/imgs/correct.svg

<svg width="21" height="21" viewBox="0 0 21 21" fill="none" xmlns="http://www.w3.org/2000/svg">
<path d="M15.0904 7.77957C15.3956 8.08475 15.3956 8.57944 15.0904 8.88446L9.8493 14.1257C9.54413 14.4307 9.04959 14.4307 8.74442 14.1257L6.24945 11.6306C5.94427 11.3256 5.94427 10.8309 6.24945 10.5258C6.55447 10.2207 7.04916 10.2207 7.35419 10.5258L9.29678 12.4684L13.9855 7.77957C14.2907 7.47455 14.7854 7.47455 15.0904 7.77957ZM20.6699 10.9526C20.6699 16.4801 16.1967 20.9526 10.6699 20.9526C5.14243 20.9526 0.669922 16.4794 0.669922 10.9526C0.669922 5.42514 5.14319 0.952637 10.6699 0.952637C16.1974 0.952637 20.6699 5.4259 20.6699 10.9526ZM19.1074 10.9526C19.1074 6.28879 15.3332 2.51514 10.6699 2.51514C6.00607 2.51514 2.23242 6.2894 2.23242 10.9526C2.23242 15.6165 6.00668 19.3901 10.6699 19.3901C15.3338 19.3901 19.1074 15.6159 19.1074 10.9526Z" fill="#643E96"/>
</svg>

<svg xmlns="http://www.w3.org/2000/svg" width="21" height="21" fill="none"><path fill="#643E96" d="M15.09 7.78c.306.305.306.8 0 1.104l-5.24 5.242a.78.78 0 0 1-1.106 0L6.25 11.63a.781.781 0 1 1 1.105-1.105l1.943 1.942 4.688-4.688a.78.78 0 0 1 1.105 0m5.58 3.173c0 5.527-4.473 10-10 10s-10-4.474-10-10c0-5.528 4.473-10 10-10s10 4.473 10 10m-1.563 0a8.433 8.433 0 0 0-8.437-8.438 8.433 8.433 0 0 0-8.438 8.438 8.433 8.433 0 0 0 8.438 8.437 8.433 8.433 0 0 0 8.437-8.437"/></svg>
